icons/html.svg

<svg width="24" height="24" viewBox="0 0 24 24" fill="none" xmlns="http://www.w3.org/2000/svg">
<path d="M8.00001 6C7.71215 6 7.43826 6.12404 7.24839 6.3404C7.05852 6.55675 6.9711 6.84443 7.00847 7.12984L7.5799 11.4935C7.64509 11.9913 8.06934 12.3636 8.57143 12.3636H14.2678L13.9634 14.3976L12 14.9598L9.99679 14.3862C9.86425 13.8716 9.34885 13.5475 8.82351 13.6576C8.28296 13.7709 7.93657 14.3009 8.04983 14.8414L8.16412 15.3869C8.24018 15.7499 8.51096 16.0411 8.86757 16.1432L11.7247 16.9614C11.9046 17.0129 12.0954 17.0129 12.2753 16.9614L15.1324 16.1432C15.5091 16.0353 15.7881 15.7174 15.8461 15.3298L16.4176 11.5116C16.4606 11.2238 16.3762 10.9315 16.1862 10.711C15.9962 10.4904 15.7196 10.3636 15.4286 10.3636H9.44902L9.1395 8H16C16.5523 8 17 7.55228 17 7C17 6.44772 16.5523 6 16 6H8.00001Z" fill="black"/>
<path fill-rule="evenodd" clip-rule="evenodd" d="M4.00001 2C3.71293 2 3.4397 2.12338 3.24986 2.33873C3.06002 2.55408 2.97189 2.84063 3.0079 3.12544L5.0079 18.9436C5.05492 19.3155 5.30598 19.6299 5.65826 19.758L11.6583 21.9398C11.879 22.0201 12.121 22.0201 12.3417 21.9398L18.3417 19.758C18.694 19.6299 18.9451 19.3155 18.9921 18.9436L20.9921 3.12544C21.0281 2.84063 20.94 2.55408 20.7502 2.33873C20.5603 2.12338 20.2871 2 20 2H4.00001ZM6.91552 18.087L5.1344 4H18.8656L17.0845 18.087L12 19.9359L6.91552 18.087Z" fill="black"/>
</svg>

<svg
  width="24"
  height="24"
  viewBox="0 0 24 24"
  xmlns="http://www.w3.org/2000/svg"
>
  <path d="M8 6a1 1 0 0 0-.992 1.13l.572 4.363a1 1 0 0 0 .991.87h5.697l-.305 2.035L12 14.96l-2.003-.574a1 1 0 0 0-1.947.455l.114.546a1 1 0 0 0 .704.756l2.857.818a1 1 0 0 0 .55 0l2.857-.818a1 1 0 0 0 .714-.813l.572-3.818a1 1 0 0 0-.99-1.148H9.45L9.139 8H16a1 1 0 1 0 0-2H8z" />
  <path
    fill-rule="evenodd"
    clip-rule="evenodd"
    d="M4 2a1 1 0 0 0-.992 1.125l2 15.819a1 1 0 0 0 .65.814l6 2.182a1 1 0 0 0 .684 0l6-2.182a1 1 0 0 0 .65-.814l2-15.819A1 1 0 0 0 20 2H4zm2.916 16.087L5.134 4h13.732l-1.782 14.087L12 19.936l-5.084-1.849z"
  />
</svg>
